public/icon.svg

<svg width="279" height="279" viewBox="0 0 279 279" fill="none" xmlns="http://www.w3.org/2000/svg">
<rect width="279" height="279" fill="#111110"/>
<path d="M68.9514 149.476V182H54V98H87.5238C106.213 98 117.894 106.774 117.894 123.738C117.894 140.468 106.213 149.476 87.5238 149.476H68.9514ZM68.9514 136.607H86.7061C97.4524 136.607 103.176 131.928 103.176 123.738C103.176 115.432 97.4524 110.869 86.7061 110.869H68.9514V136.607Z" fill="#F5F3F1"/>
<path d="M145.091 98V182H130.139V98H145.091Z" fill="#F5F3F1"/>
<path d="M226 111.103H199.017V182H184.066V111.103H157.084V98H226V111.103Z" fill="#F5F3F1"/>
</svg>

<svg xmlns="http://www.w3.org/2000/svg" width="279" height="279" fill="none" viewBox="0 0 279 279"><path fill="#111110" d="M0 0h279v279H0z"/><path fill="#f5f3f1" d="M68.951 149.476V182H54V98h33.524c18.689 0 30.37 8.774 30.37 25.738 0 16.73-11.681 25.738-30.37 25.738zm0-12.869h17.755c10.746 0 16.47-4.679 16.47-12.869 0-8.306-5.724-12.869-16.47-12.869H68.951zM145.091 98v84h-14.952V98zM226 111.103h-26.983V182h-14.951v-70.897h-26.982V98H226z"/></svg>
